Adwaita++-Dark/apps/16/griffith.svg

<svg height="16" width="16" xmlns="http://www.w3.org/2000/svg">
  <path d="m1 2v13h1v-1h1v1h1 9 1v-1h1v1h1v-13h-1v1h-1v-1h-10-1v1h-1v-1zm1 2h1v1h-1zm12 0h1v1h-1zm-4.9003906.5c.51302 0 1.0024436.0481246 1.4707026.1445312.4717.0964067.917372.2403142 1.333985.4296876v1.5957031c-.430387-.2444534-.86017-.4283148-1.287109-.5488281-.423501-.1205067-.8484511-.1796876-1.2753911-.1796876-.7919067 0-1.4035977.2218557-1.8339844.6660157-.4269467.4407133-.640625 1.0716312-.640625 1.8945312 0 .8160067.2079204 1.446465.6210937 1.8906249.4131667.444153.998839.666016 1.7597657.666016.20658 0 .3986187-.011023.5742187-.035156.1790404-.027534.3393024-.0699.4804684-.125v-1.4980474h-1.2148434v-1.3320312h3.0996094v3.7089846c-.495807.241013-1.011242.420509-1.544922.541015-.533673.120507-1.0842303.181641-1.6523436.181641-1.2842667 0-2.3021411-.358059-3.0527344-1.074219-.7505867-.7196-1.125-1.6946479-1.125-2.9238279 0-1.2429533.3821244-2.2208737 1.1464844-2.9335937.7643666-.71272 1.8115983-1.0683594 3.140625-1.0683594zm-7.0996094 1.5h1v1h-1zm12 0h1v1h-1zm-12 2h1v.1660156.6679688.1660156h-1zm12 0h1v1h-1zm-12 2h1v1h-1zm12 0h1v1h-1zm-12 2h1v1h-1zm12 0h1v1h-1z" fill="#e6ddff"/>
</svg>

<svg xmlns="http://www.w3.org/2000/svg" width="16" height="16" version="1.1">
 <g transform="translate(-532,-180)">
  <path fill="#E6DDFF" d="M 1 2 L 1 15 L 2 15 L 2 14 L 3 14 L 3 15 L 4 15 L 13 15 L 14 15 L 14 14 L 15 14 L 15 15 L 16 15 L 16 2 L 15 2 L 15 3 L 14 3 L 14 2 L 4 2 L 3 2 L 3 3 L 2 3 L 2 2 L 1 2 z M 2 4 L 3 4 L 3 5 L 2 5 L 2 4 z M 14 4 L 15 4 L 15 5 L 14 5 L 14 4 z M 9.0996094 4.5 C 9.6126294 4.5 10.102053 4.5481246 10.570312 4.6445312 C 11.042012 4.7409379 11.487684 4.8848454 11.904297 5.0742188 L 11.904297 6.6699219 C 11.47391 6.4254685 11.044127 6.2416071 10.617188 6.1210938 C 10.193687 6.0005871 9.7687369 5.9414062 9.3417969 5.9414062 C 8.5498902 5.9414062 7.9381992 6.1632619 7.5078125 6.6074219 C 7.0808658 7.0481352 6.8671875 7.6790531 6.8671875 8.5019531 C 6.8671875 9.3179598 7.0751079 9.9484181 7.4882812 10.392578 C 7.9014479 10.836731 8.4871202 11.058594 9.2480469 11.058594 C 9.4546269 11.058594 9.6466656 11.047571 9.8222656 11.023438 C 10.001306 10.995904 10.161568 10.953538 10.302734 10.898438 L 10.302734 9.4003906 L 9.0878906 9.4003906 L 9.0878906 8.0683594 L 12.1875 8.0683594 L 12.1875 11.777344 C 11.691693 12.018357 11.176258 12.197853 10.642578 12.318359 C 10.108905 12.438866 9.5583477 12.5 8.9902344 12.5 C 7.7059677 12.5 6.6880933 12.141941 5.9375 11.425781 C 5.1869133 10.706181 4.8125 9.7311331 4.8125 8.5019531 C 4.8125 7.2589998 5.1946244 6.2810794 5.9589844 5.5683594 C 6.723351 4.8556394 7.7705827 4.5 9.0996094 4.5 z M 2 6 L 3 6 L 3 7 L 2 7 L 2 6 z M 14 6 L 15 6 L 15 7 L 14 7 L 14 6 z M 2 8 L 3 8 L 3 8.1660156 L 3 8.8339844 L 3 9 L 2 9 L 2 8 z M 14 8 L 15 8 L 15 9 L 14 9 L 14 8 z M 2 10 L 3 10 L 3 11 L 2 11 L 2 10 z M 14 10 L 15 10 L 15 11 L 14 11 L 14 10 z M 2 12 L 3 12 L 3 13 L 2 13 L 2 12 z M 14 12 L 15 12 L 15 13 L 14 13 L 14 12 z" transform="translate(532,180)"/>
 </g>
</svg>
